!!!OTL: The Seizure of the E.J. Horton
!!!ONM: 144.
**kern
*clefG2
*k[b-]
*F:
*M6/8
*MM80
{8c
=1
4c
8f
4f
8g
=2
8a
4a
4r
8f
=3
4f
8a
4f
8e
=4
4.f
4r}
{8cc
=5
4cc
8cc
4cc
8cc
=6
4dd
[8cc
8cc]
8cc
8cc
=7
4cc
8g
4g
8a
=8
4.g
8r}
{8cc
8cc
=9
4cc
8cc
4cc
8cc
=10
4dd
[8cc
4cc]
8r
=11
4f
8c
4f
8g
=12
4.a
4r}
{8c
=13
4c
8f
4f
8g
=14
8a
4a
4r
16f
16f
=15
4g
8a
4f
8e
=16
[4.f
4f]}
==
*-
!!!CNT: Folksongs of Maritime Canada
!!!MRD: 1928///-1932///
!!!OCL: Helen Creighton
!!!YOR: Songs and Ballads from Nova Scotia
!!!PPR: J.M. Dent & Sons, Limited
!!!PPP: Toronto, Canada
!!!PDT: 1932///
!!!reprint: Dover Publications, 1992: ISBN 0-486-21703-5
!!!ENC1: Craig Stuart Sapp (music and bibliographic data)                       
!!!ENC2: Marcus Pearce (phrase markings and key designations)                   
!!!ENC3: Darrell Conklin (phrase markings and key designations)   
!!!END: 2002/04/10/
!!!EEV: 2004/06/05
!!!MPN: Mr. Ben Henneberry
!!!PPG: 314
!!!EFL: 146/152
!!!ARE: Canada; Nova Scotia
!!!verses: 6
!!!VTS: 232756884
